X: 1134
T: The Prince Of Orange
M: 6/8
L: 1/8
R: jig
K: D Major
|: AF | 
D2 F A2 d | faf ecA | B2 c d2 B | ABG FGE |
D2 F A2 d | faf ecA | B2 d cec | d3- d :|
|: cd | 
e2 e dcB | A2 A Ace | g2 e f2 d | cec A2 d |
ege dcB | AcA Ace | g2 e f2 d |[1 edc A |[2 edc BAG ||
|: F3 GFG | A2 d d2 B | A3 AGF | E2 F GFE |
F2 F GFG | B2 A A2 d | BdB cec |[1 d3 d2 A |[2 d3- d ||
